Numix-Circle/48x48/apps/putty.svg

<svg xmlns="http://www.w3.org/2000/svg" xmlns:xlink="http://www.w3.org/1999/xlink" width="48" viewBox="0 0 13.546667 13.546667" height="48">
 <defs>
  <linearGradient id="0">
   <stop stop-color="#dedede"/>
   <stop offset="1" stop-color="#f9f9f9"/>
  </linearGradient>
  <linearGradient gradientTransform="matrix(1.10525 0 0 1.10525 -134.27874 -295.76183)" xlink:href="#0" id="1" y1="279.1" y2="268.33" gradientUnits="userSpaceOnUse" x2="0"/>
 </defs>
 <g fill-rule="evenodd">
  <rect width="12.982" x="0.282" y="0.283" rx="6.491" height="12.982" opacity="0.5" fill="#fff"/>
  <rect width="11.853" x="0.847" y="0.847" rx="5.926" height="11.853" fill="url(#1)"/>
 </g>
 <path d="M 11.53125 13 C 11.238467 13.031181 10.998427 13.299182 11 13.59375 L 11 24.40625 C 11.000032 24.720648 11.279585 24.99995 11.59375 25 L 17 25 L 17 27 L 13 27 L 13 29 L 20.28125 29 L 20.28125 25.03125 L 17.96875 23 L 13.4375 23 C 13.228055 22.99995 13.031271 22.803355 13.03125 22.59375 L 13.03125 15.40625 C 13.02795 15.219447 13.160384 15.034827 13.34375 15 C 13.36855 14.995 13.41255 14.995 13.4375 15 L 24.5625 15 C 24.771945 15.00005 24.968732 15.196646 24.96875 15.40625 L 24.96875 18.28125 L 27 18.28125 L 27 13.59375 C 26.999968 13.279423 26.720412 13.000099 26.40625 13 L 11.59375 13 L 11.53125 13 z " transform="scale(0.28222223,0.28222223)" fill="#c0274b" color="#000000"/>
 <path d="M 25.125 19 L 27.59375 21 L 34.5625 21 C 34.771945 21.00005 34.968732 21.196646 34.96875 21.40625 L 34.96875 28.59375 C 34.968732 28.803372 34.771938 28.99995 34.5625 29 L 23.4375 29 C 23.228055 28.99995 23.031271 28.803355 23.03125 28.59375 L 23.03125 27.46875 L 21 25.6875 L 21 30.40625 C 21.000032 30.720648 21.279586 30.99995 21.59375 31 L 27 31 L 27 33 L 23 33 L 23 35 L 35 35 L 35 33 L 31 33 L 31 31 L 36.40625 31 C 36.7204 30.99995 36.999968 30.720623 37 30.40625 L 37 19.59375 C 36.999968 19.279423 36.720407 19.000099 36.40625 19 L 25.125 19 z " transform="scale(0.28222223,0.28222223)" fill="#283a51" color="#000000"/>
 <path d="m 4.2333334,5.3622224 2.5400001,2.2577778 0,-1.4111111 1.9755556,0.8466667 -2.8222223,-2.2577779 0,1.0583334 -1.6933334,-0.4938889 z" fill="#ea8f00" fill-rule="evenodd"/>
</svg>

<svg viewBox="0 0 48 48"><defs><linearGradient id="1" gradientUnits="userSpaceOnUse" y1="15" x2="0" y2="11" gradientTransform="matrix(15.333333,0,0,11.5,414.99999,-125.5)"><stop/><stop offset="1" stop-opacity="0"/></linearGradient><clipPath id="clipPath-224600720"><g transform="translate(0,-1004.3622)"><path d="m -24 13 c 0 1.105 -0.672 2 -1.5 2 -0.828 0 -1.5 -0.895 -1.5 -2 0 -1.105 0.672 -2 1.5 -2 0.828 0 1.5 0.895 1.5 2 z" transform="matrix(15.333333,0,0,11.5,414.99999,878.8622)" fill="#1890d0"/></g></clipPath><clipPath id="clipPath-234552023"><g transform="translate(0,-1004.3622)"><path d="m -24 13 c 0 1.105 -0.672 2 -1.5 2 -0.828 0 -1.5 -0.895 -1.5 -2 0 -1.105 0.672 -2 1.5 -2 0.828 0 1.5 0.895 1.5 2 z" transform="matrix(15.333333,0,0,11.5,414.99999,878.8622)" fill="#1890d0"/></g></clipPath></defs><g><g transform="translate(0,-1004.3622)"><path d="m 25 1006.36 c -12.703 0 -23 10.298 -23 23 0 6.367 2.601 12.12 6.781 16.281 4.085 3.712 9.514 5.969 15.469 5.969 12.703 0 23 -10.297 23 -23 0 -5.954 -2.256 -11.384 -5.969 -15.469 -4.165 -4.181 -9.914 -6.781 -16.281 -6.781 z m 16.281 6.781 c 3.854 4.113 6.219 9.637 6.219 15.719 0 12.703 -10.297 23 -23 23 -6.081 0 -11.606 -2.364 -15.719 -6.219 4.16 4.144 9.883 6.719 16.219 6.719 12.703 0 23 -10.297 23 -23 0 -6.335 -2.575 -12.06 -6.719 -16.219 z" opacity="0.05"/><path d="m 41.28 1013.14 c 3.712 4.085 5.969 9.514 5.969 15.469 0 12.703 -10.297 23 -23 23 -5.954 0 -11.384 -2.256 -15.469 -5.969 4.113 3.854 9.637 6.219 15.719 6.219 12.703 0 23 -10.297 23 -23 0 -6.081 -2.364 -11.606 -6.219 -15.719 z" opacity="0.1"/><path transform="matrix(15.333333,0,0,11.5,415.24999,879.11222)" d="m -24 13 a 1.5 2 0 1 1 -3 0 1.5 2 0 1 1 3 0 z" opacity="0.2"/></g></g><g><g transform="translate(0,-1004.3622)"><path d="m -24 13 c 0 1.105 -0.672 2 -1.5 2 -0.828 0 -1.5 -0.895 -1.5 -2 0 -1.105 0.672 -2 1.5 -2 0.828 0 1.5 0.895 1.5 2 z" transform="matrix(15.333333,0,0,11.5,414.99999,878.8622)" fill="#eee"/></g></g><g><path d="m 47 24 c 0 12.703 -10.297 23 -23 23 -12.703 0 -23 -10.297 -23 -23 0 -12.703 10.297 -23 23 -23 12.703 0 23 10.297 23 23 z" opacity="0.15" fill="url(#1)"/></g><g><g clip-path="url(#clipPath-224600720)"><g transform="translate(0,1)"><g opacity="0.1"><!-- color: #eeeeee --><g><path d="m 11.531 13 c -0.293 0.031 -0.535 0.301 -0.531 0.594 l 0 10.813 c 0 0.316 0.281 0.594 0.594 0.594 l 5.406 0 l 0 2 l -4 0 l 0 2 l 7.281 0 l 0 -3.969 l -2.313 -2.031 l -4.531 0 c -0.211 0 -0.406 -0.195 -0.406 -0.406 l 0 -7.188 c -0.004 -0.188 0.129 -0.371 0.313 -0.406 c 0.023 -0.004 0.07 -0.004 0.094 0 l 11.125 0 c 0.211 0 0.406 0.199 0.406 0.406 l 0 2.875 l 2.031 0 l 0 -4.688 c 0 -0.313 -0.281 -0.594 -0.594 -0.594 m -14.875 0" fill="#000" stroke="none" fill-rule="nonzero" fill-opacity="1"/><path d="m 25.13 19 l 2.469 2 l 6.969 0 c 0.211 0 0.406 0.195 0.406 0.406 l 0 7.188 c 0 0.211 -0.195 0.406 -0.406 0.406 l -11.125 0 c -0.207 0 -0.406 -0.195 -0.406 -0.406 l 0 -1.125 l -2.027 -1.781 l 0 4.719 c 0 0.316 0.277 0.594 0.594 0.594 l 5.406 0 l 0 2 l -4 0 l 0 2 l 12 0 l 0 -2 l -4 0 l 0 -2 l 5.402 0 c 0.316 0 0.598 -0.277 0.598 -0.594 l 0 -10.813 c 0 -0.313 -0.281 -0.594 -0.598 -0.594 m -11.281 0" fill="#000" stroke="none" fill-rule="nonzero" fill-opacity="1"/><path d="m 15 19 l 9 8 l 0 -5 l 7 3 l -10 -8 l 0 3.75 l -5.996 -1.75 m -0.004 0" fill="#000" stroke="none" fill-rule="evenodd" fill-opacity="1"/></g></g></g></g></g><g><g clip-path="url(#clipPath-234552023)"><!-- color: #eeeeee --><g><path d="m 11.531 13 c -0.293 0.031 -0.535 0.301 -0.531 0.594 l 0 10.813 c 0 0.316 0.281 0.594 0.594 0.594 l 5.406 0 l 0 2 l -4 0 l 0 2 l 7.281 0 l 0 -3.969 l -2.313 -2.031 l -4.531 0 c -0.211 0 -0.406 -0.195 -0.406 -0.406 l 0 -7.188 c -0.004 -0.188 0.129 -0.371 0.313 -0.406 c 0.023 -0.004 0.07 -0.004 0.094 0 l 11.125 0 c 0.211 0 0.406 0.199 0.406 0.406 l 0 2.875 l 2.031 0 l 0 -4.688 c 0 -0.313 -0.281 -0.594 -0.594 -0.594 m -14.875 0" fill="#c0274b" stroke="none" fill-rule="nonzero" fill-opacity="1"/><path d="m 25.13 19 l 2.469 2 l 6.969 0 c 0.211 0 0.406 0.195 0.406 0.406 l 0 7.188 c 0 0.211 -0.195 0.406 -0.406 0.406 l -11.125 0 c -0.207 0 -0.406 -0.195 -0.406 -0.406 l 0 -1.125 l -2.027 -1.781 l 0 4.719 c 0 0.316 0.277 0.594 0.594 0.594 l 5.406 0 l 0 2 l -4 0 l 0 2 l 12 0 l 0 -2 l -4 0 l 0 -2 l 5.402 0 c 0.316 0 0.598 -0.277 0.598 -0.594 l 0 -10.813 c 0 -0.313 -0.281 -0.594 -0.598 -0.594 m -11.281 0" fill="#283951" stroke="none" fill-rule="nonzero" fill-opacity="1"/><path d="m 15 19 l 9 8 l 0 -5 l 7 3 l -10 -8 l 0 3.75 l -5.996 -1.75 m -0.004 0" fill="#ea8e00" stroke="none" fill-rule="evenodd" fill-opacity="1"/></g></g></g><g><path d="m 40.03 7.531 c 3.712 4.084 5.969 9.514 5.969 15.469 0 12.703 -10.297 23 -23 23 c -5.954 0 -11.384 -2.256 -15.469 -5.969 4.178 4.291 10.01 6.969 16.469 6.969 c 12.703 0 23 -10.298 23 -23 0 -6.462 -2.677 -12.291 -6.969 -16.469 z" opacity="0.1"/></g></svg>
